Adwaita++/apps/16/accessories-text-editor.svg

<svg height="16.007" width="16" xmlns="http://www.w3.org/2000/svg">
  <g fill="#474747">
    <path d="m5.5 6.007a.5.5 0 1 0 0 1h6a.5.5 0 1 0 0-1zm0 2a.5.5 0 1 0 0 1h5a.5.5 0 1 0 0-1zm0 2a.5.5 0 1 0 0 1h6a.5.5 0 1 0 0-1zm0 2a.5.5 0 1 0 0 1h3a.5.5 0 1 0 0-1z"/>
    <path d="m4 1.007c-1.09 0-2 .91-2 2v11c0 1.09.91 2 2 2h9c1.09 0 2-.91 2-2v-11c0-1.09-.91-2-2-2v13h-9v-13z"/>
    <path d="m5.492 0a.5.5 0 0 0 -.492.506v3a.5.5 0 1 0 1 0v-3a.5.5 0 0 0 -.508-.506zm2 0a.5.5 0 0 0 -.492.506v3a.5.5 0 1 0 1 0v-3a.5.5 0 0 0 -.508-.506zm2 0a.5.5 0 0 0 -.492.506v3a.5.5 0 1 0 1 0v-3a.5.5 0 0 0 -.508-.506zm2 0a.5.5 0 0 0 -.492.506v3a.5.5 0 1 0 1 0v-3a.5.5 0 0 0 -.508-.506z"/>
  </g>
</svg>

<svg xmlns="http://www.w3.org/2000/svg" width="16" height="16.007">
    <g color="#000" font-weight="400" fill="#474747">
        <path d="M5.5 6.007a.5.5 0 1 0 0 1h6a.5.5 0 1 0 0-1zM5.5 8.007a.5.5 0 1 0 0 1h5a.5.5 0 1 0 0-1zM5.5 10.007a.5.5 0 1 0 0 1h6a.5.5 0 1 0 0-1zM5.5 12.007a.5.5 0 1 0 0 1h3a.5.5 0 1 0 0-1z" style="line-height:normal;font-variant-ligatures:normal;font-variant-position:normal;font-variant-caps:normal;font-variant-numeric:normal;font-variant-alternates:normal;font-feature-settings:normal;text-indent:0;text-align:start;text-decoration-line:none;text-decoration-style:solid;text-decoration-color:#000;text-transform:none;text-orientation:mixed;shape-padding:0;isolation:auto;mix-blend-mode:normal" font-family="sans-serif" white-space="normal" overflow="visible"/>
        <path d="M4 1.007c-1.09 0-2 .91-2 2v11c0 1.09.91 2 2 2h9c1.09 0 2-.91 2-2v-11c0-1.09-.91-2-2-2v13H4v-13z" style="line-height:normal;-inkscape-font-specification:Sans;text-indent:0;text-align:start;text-decoration-line:none;text-transform:none;marker:none" font-family="Sans" overflow="visible"/>
        <path d="M5.492 0A.5.5 0 0 0 5 .506v3a.5.5 0 1 0 1 0v-3A.5.5 0 0 0 5.492 0zM7.492 0A.5.5 0 0 0 7 .506v3a.5.5 0 1 0 1 0v-3A.5.5 0 0 0 7.492 0zM9.492 0A.5.5 0 0 0 9 .506v3a.5.5 0 1 0 1 0v-3A.5.5 0 0 0 9.492 0zM11.492 0A.5.5 0 0 0 11 .506v3a.5.5 0 1 0 1 0v-3A.5.5 0 0 0 11.492 0z" style="line-height:normal;font-variant-ligatures:normal;font-variant-position:normal;font-variant-caps:normal;font-variant-numeric:normal;font-variant-alternates:normal;font-feature-settings:normal;text-indent:0;text-align:start;text-decoration-line:none;text-decoration-style:solid;text-decoration-color:#000;text-transform:none;text-orientation:mixed;shape-padding:0;isolation:auto;mix-blend-mode:normal" font-family="sans-serif" white-space="normal" overflow="visible"/>
    </g>
</svg>
